img/facebook.svg

<svg width="25" height="24" fill="none" xmlns="http://www.w3.org/2000/svg"><path d="M23.54 0H1.46A.959.959 0 0 0 .5.96v22.08c0 .531.429.96.96.96h22.08c.531 0 .96-.429.96-.96V.96a.959.959 0 0 0-.96-.96Zm-2.772 7.005h-1.917c-1.503 0-1.794.714-1.794 1.764v2.313h3.588l-.468 3.621h-3.12V24h-3.741v-9.294h-3.129v-3.624h3.129v-2.67c0-3.099 1.893-4.788 4.659-4.788 1.326 0 2.463.099 2.796.144v3.237h-.003Z" fill="#335BF5"/></svg>

<svg width="25" height="24" viewBox="0 0 25 24" fill="none" xmlns="http://www.w3.org/2000/svg">
<path d="M23.54 0H1.46C0.929 0 0.5 0.429 0.5 0.96V23.04C0.5 23.571 0.929 24 1.46 24H23.54C24.071 24 24.5 23.571 24.5 23.04V0.96C24.5 0.429 24.071 0 23.54 0ZM20.768 7.005H18.851C17.348 7.005 17.057 7.719 17.057 8.769V11.082H20.645L20.177 14.703H17.057V24H13.316V14.706H10.187V11.082H13.316V8.412C13.316 5.313 15.209 3.624 17.975 3.624C19.301 3.624 20.438 3.723 20.771 3.768V7.005H20.768Z" fill="#335BF5"/>
</svg>
